X: 34213
T: Reel Saint-Antoine
R: reel
M: 4/4
K: Amajor
a3a2e ce|a2aa2 e ce|agfe dcBA|GABc defg|
a3a2e ce|agab aece|agfe dcBA|1 GABG ABce:|2 GABG A2B2||
c3c cAce|dcBA GABc|d3d dcdf|edcB ABAB|
c3c cAce|dcBA GABc|defg afed|1 cABc ABAB:|2 cABc defg||

